Catalina-light/actions/22/view-list-icons2.svg

<svg xmlns="http://www.w3.org/2000/svg" viewBox="0 0 22 22">
  <defs id="defs3051">
    <style type="text/css" id="current-color-scheme">
      .ColorScheme-Text {
        color:#4d4d4d
      }
      </style>
  </defs>
 <path 
     style="fill:currentColor;fill-opacity:1;stroke:none"      
	 class="ColorScheme-Text"
        d="M 15.576172 3 C 14.940871 3 14.356781 3.1556329 13.820312 3.46875 C 13.283788 3.7818112 12.858039 4.2076162 12.544922 4.7441406 C 12.231749 5.280665 12.076172 5.8667087 12.076172 6.5019531 C 12.076172 7.1372535 12.231861 7.7231853 12.544922 8.2597656 C 12.858039 8.7961781 13.283788 9.220086 13.820312 9.5332031 C 14.356837 9.8463203 14.940871 10.003906 15.576172 10.003906 C 16.211472 10.003906 16.797516 9.8463203 17.333984 9.5332031 C 17.870453 9.220142 18.296258 8.796234 18.609375 8.2597656 C 18.922436 7.7232412 19.078125 7.1371975 19.078125 6.5019531 C 19.078125 5.8666527 18.92238 5.280609 18.609375 4.7441406 C 18.296258 4.2076722 17.870453 3.7818671 17.333984 3.46875 C 16.797404 3.1556329 16.211528 3 15.576172 3 z M 6.4238281 3.0039062 C 5.7885277 3.0039062 5.202484 3.1595391 4.6660156 3.4726562 C 4.1294912 3.7857174 3.7037421 4.2115225 3.390625 4.7480469 C 3.0774519 5.2845713 2.921875 5.870615 2.921875 6.5058594 C 2.921875 7.1411598 3.0775638 7.7270915 3.390625 8.2636719 C 3.7037421 8.8000843 4.1294912 9.2239922 4.6660156 9.5371094 C 5.20254 9.8502265 5.7885277 10.007812 6.4238281 10.007812 C 7.0591285 10.007812 7.6451722 9.8502265 8.1816406 9.5371094 C 8.718109 9.2240482 9.141961 8.8001403 9.4550781 8.2636719 C 9.7681393 7.7271475 9.9238281 7.1411038 9.9238281 6.5058594 C 9.9238281 5.870559 9.7680833 5.2845153 9.4550781 4.7480469 C 9.141961 4.2115785 8.718109 3.7857734 8.1816406 3.4726562 C 7.6450603 3.1595391 7.0591845 3.0039063 6.4238281 3.0039062 z M 15.484375 11.947266 C 14.849075 11.947266 14.263031 12.104852 13.726562 12.417969 C 13.190038 12.73103 12.764289 13.154882 12.451172 13.691406 C 12.137999 14.227931 11.982422 14.813974 11.982422 15.449219 C 11.982422 16.084519 12.138111 16.670451 12.451172 17.207031 C 12.764289 17.743444 13.190038 18.169305 13.726562 18.482422 C 14.263087 18.795539 14.847121 18.951172 15.482422 18.951172 C 16.117722 18.951172 16.703766 18.795539 17.240234 18.482422 C 17.776703 18.169361 18.202508 17.7435 18.515625 17.207031 C 18.828686 16.670507 18.984375 16.084463 18.984375 15.449219 C 18.984375 14.813918 18.82863 14.227875 18.515625 13.691406 C 18.202508 13.154938 17.776703 12.731086 17.240234 12.417969 C 16.703654 12.104852 16.119731 11.947266 15.484375 11.947266 z M 6.4980469 11.996094 C 5.8627465 11.996094 5.2767028 12.15368 4.7402344 12.466797 C 4.20371 12.779858 3.779914 13.20371 3.4667969 13.740234 C 3.1536238 14.276759 2.9960937 14.862802 2.9960938 15.498047 C 2.9960938 16.133347 3.1537357 16.719279 3.4667969 17.255859 C 3.779914 17.792272 4.20371 18.218133 4.7402344 18.53125 C 5.2767588 18.844367 5.8627465 19 6.4980469 19 C 7.1333473 19 7.719391 18.844367 8.2558594 18.53125 C 8.7923278 18.218189 9.2161797 17.792328 9.5292969 17.255859 C 9.842358 16.719335 10 16.133291 10 15.498047 C 10 14.862746 9.8423021 14.276703 9.5292969 13.740234 C 9.2161797 13.203766 8.7923278 12.779914 8.2558594 12.466797 C 7.719279 12.15368 7.1334032 11.996094 6.4980469 11.996094 z "
     />
</svg>

<svg viewBox="0 0 22 22" xmlns="http://www.w3.org/2000/svg">
<defs>
<style id="current-color-scheme" type="text/css">.ColorScheme-Text {
        color:#363636
      }</style>
</defs>
<path class="ColorScheme-Text" d="m15.576 3c-0.6353 0-1.2194 0.15563-1.7559 0.46875-0.53652 0.31306-0.96227 0.73887-1.2754 1.2754-0.31317 0.53652-0.46875 1.1226-0.46875 1.7578 0 0.6353 0.15569 1.2212 0.46875 1.7578 0.31312 0.53641 0.73887 0.96032 1.2754 1.2734 0.53652 0.31312 1.1206 0.4707 1.7559 0.4707 0.6353 0 1.2213-0.15759 1.7578-0.4707 0.53647-0.31306 0.96227-0.73697 1.2754-1.2734 0.31306-0.53652 0.46875-1.1226 0.46875-1.7578 0-0.6353-0.15574-1.2213-0.46875-1.7578-0.31312-0.53647-0.73892-0.96227-1.2754-1.2754-0.53658-0.31312-1.1225-0.46875-1.7578-0.46875zm-9.1523 0.0039062c-0.6353 0-1.2213 0.15563-1.7578 0.46875-0.53652 0.31306-0.96227 0.73887-1.2754 1.2754-0.31317 0.53652-0.46875 1.1226-0.46875 1.7578 0 0.6353 0.15569 1.2212 0.46875 1.7578 0.31312 0.53641 0.73887 0.96032 1.2754 1.2734 0.53652 0.31312 1.1225 0.4707 1.7578 0.4707s1.2213-0.15759 1.7578-0.4707c0.53647-0.31306 0.96032-0.73697 1.2734-1.2734 0.31306-0.53652 0.46875-1.1226 0.46875-1.7578 0-0.6353-0.15574-1.2213-0.46875-1.7578-0.31312-0.53647-0.73697-0.96227-1.2734-1.2754-0.53658-0.31312-1.1225-0.46875-1.7578-0.46875zm9.0605 8.9434c-0.6353 0-1.2213 0.15759-1.7578 0.4707-0.53652 0.31306-0.96227 0.73691-1.2754 1.2734-0.31317 0.53652-0.46875 1.1226-0.46875 1.7578 0 0.6353 0.15569 1.2212 0.46875 1.7578 0.31312 0.53641 0.73887 0.96227 1.2754 1.2754 0.53652 0.31312 1.1206 0.46875 1.7559 0.46875 0.6353 0 1.2213-0.15563 1.7578-0.46875 0.53647-0.31306 0.96227-0.73892 1.2754-1.2754 0.31306-0.53652 0.46875-1.1226 0.46875-1.7578 0-0.6353-0.15574-1.2213-0.46875-1.7578-0.31312-0.53647-0.73892-0.96032-1.2754-1.2734-0.53658-0.31312-1.1205-0.4707-1.7559-0.4707zm-8.9863 0.048828c-0.6353 0-1.2213 0.15759-1.7578 0.4707-0.53652 0.31306-0.96032 0.73691-1.2734 1.2734-0.31317 0.53652-0.4707 1.1226-0.4707 1.7578 0 0.6353 0.15764 1.2212 0.4707 1.7578 0.31312 0.53641 0.73691 0.96227 1.2734 1.2754s1.1225 0.46875 1.7578 0.46875 1.2213-0.15563 1.7578-0.46875c0.53647-0.31306 0.96032-0.73892 1.2734-1.2754 0.31306-0.53652 0.4707-1.1226 0.4707-1.7578 0-0.6353-0.1577-1.2213-0.4707-1.7578-0.31312-0.53647-0.73697-0.96032-1.2734-1.2734-0.53658-0.31312-1.1225-0.4707-1.7578-0.4707z" fill="#363636"/>
</svg>
